X: 21652
T: Killimor, The
R: jig
M: 6/8
K: Gmajor
|:DEF G3|BAG ABc|d^cd fef|ded cAF|
DEF G3|BAG ABc|d^cd fed|cAF G3:|
|:GBd g2d|dgb gdB|GBd g2d|fed cAF|
GBd g2d|dgb gdB|GBd fed|cAF G3:|

